src/components/Logo/assets/logo.svg

<svg width="1260px" height="295px" viewBox="0 0 1260 295" version="1.1" xmlns="http://www.w3.org/2000/svg" xmlns:xlink="http://www.w3.org/1999/xlink">

    <defs></defs>
    <g id="Logo" stroke="none" stroke-width="1" fill="none" fill-rule="evenodd">
        <g id="Artboard-Copy-3">
            <g id="Group-Copy">
                <rect id="Shape" fill="#FFF45F" x="0" y="0" width="1260" height="295"></rect>
                <path d="M196.76999,162.420181 L161.598226,162.420181 C161.299909,168.082986 158.691303,173.384074 154.368826,177.111432 C150.046348,180.83879 144.379605,182.673698 138.664212,182.196634 C121.766704,182.196634 112.294215,169.842167 112.294215,147.995003 L112.294215,146.680451 C112.294215,124.670422 122.296222,112.47882 138.181762,112.47882 C143.553896,112.056508 148.857697,113.889374 152.793844,117.528402 C156.729991,121.167431 158.934847,126.276435 158.868266,131.603814 L195.240271,131.603814 C192.310271,99.6124926 170.070514,85.0709831 138.005256,85.0709831 C121.15236,84.2561539 104.729831,90.4860434 92.7541058,102.237016 C80.7783806,113.987988 74.353739,130.176488 75.0514469,146.843316 L75.0514469,148.192768 C75.0514469,185.279434 96.255702,209.988367 139.370236,209.988367 C171.258988,209.988367 194.357741,193.701876 196.76999,162.420181 Z M264.524763,207.952555 L264.524763,160.256404 L305.038775,160.256404 L305.038775,207.952555 L340.339976,207.952555 L340.339976,86.9206631 L305.038775,86.9206631 L305.038775,133.139397 L264.512996,133.139397 L264.512996,86.9206631 L228.999987,86.9206631 L228.999987,207.906023 L264.524763,207.952555 Z M488.934501,158.360191 L488.934501,86.9206631 L453.233219,86.9206631 L453.233219,156.836241 C453.233219,174.949145 448.526392,182.731761 433.923462,182.731761 C418.920451,182.731761 414.613704,174.437284 414.613704,157.336469 L414.613704,86.9206631 L379.312503,86.9206631 L379.312503,158.860419 C379.288969,192.724687 399.10471,209.988367 433.935229,209.988367 C467.906752,209.988367 488.934501,193.562278 488.934501,158.360191 Z M609.817582,207.952555 L609.817582,181.044946 L563.267064,181.044946 L563.267064,86.9206631 L527.754055,86.9206631 L527.754055,207.906023 L609.817582,207.952555 Z M694.540466,115.026493 L707.990223,161.559323 L680.925969,161.559323 L694.540466,115.026493 Z M634.528423,207.964189 L667.476211,207.964189 L674.030467,185.453932 L714.885725,185.453932 L721.439981,207.964189 L758.847488,207.964189 L719.721989,86.9788291 L674.030467,86.9788291 L634.528423,207.964189 Z M822.424952,207.964189 L822.424952,157.348102 L857.93796,207.964189 L898.793218,207.964189 L851.2778,143.120689 L896.439804,86.9206631 L859.514747,86.9206631 L822.448486,134.826212 L822.448486,86.9206631 L786.947244,86.9206631 L786.947244,207.906023 L822.424952,207.964189 Z M1043.43401,147.36681 L1043.43401,146.005725 C1043.43401,108.430464 1015.6755,85.233848 978.10325,85.233848 C961.014236,84.2177496 944.270535,90.2917866 931.902088,101.994036 C919.53364,113.696286 912.660613,129.966916 912.937232,146.889849 L912.937232,148.239301 C912.960766,184.593074 937.777511,209.988367 977.609034,209.988367 C1017.35819,210 1043.43401,184.604708 1043.43401,147.36681 Z M949.791687,148.041536 L949.791687,146.680451 C949.791687,124.670422 960.65269,112.315955 978.032648,112.315955 C995.412606,112.315955 1006.47365,125.007785 1006.47365,146.517586 L1006.47365,147.867038 C1006.60309,169.528071 995.706783,182.731761 978.291523,182.731761 C961.170441,182.743394 949.791687,170.051565 949.791687,148.041536 Z M1101.78689,207.964189 L1141.92436,207.964189 L1182.26187,86.9788291 L1149.20817,86.9788291 L1124.03842,171.901245 L1099.04517,86.9788291 L1060.95517,86.9788291 L1101.78689,207.964189 Z" id="Chulakov_ru" fill="#151515"></path>
            </g>
        </g>
    </g>
</svg>

<svg xmlns="http://www.w3.org/2000/svg" height="295" width="1260" viewBox="0 0 1260 295"><path d="M0 0h1260v295H0z" class="Logo__rectBg" /><path d="M196.77 162.42H161.6c-.3 5.66-2.91 10.96-7.23 14.69s-9.99 5.56-15.71 5.09c-16.89 0-26.37-12.36-26.37-34.2v-1.32c0-22.01 10.01-34.2 25.89-34.2 5.37-.42 10.68 1.41 14.61 5.05 3.94 3.64 6.14 8.75 6.08 14.07h36.37c-2.93-31.988-25.17-46.529-57.23-46.529-16.86-.815-33.28 5.415-45.256 17.169-11.976 11.75-18.4 27.94-17.703 44.6v1.35c0 37.09 21.205 61.8 64.319 61.8 31.89 0 54.99-16.29 57.4-47.57zm67.75 45.53v-47.69h40.52v47.69h35.3V86.92l-35.3.001v46.219h-40.53V86.921H229v120.99l35.52.04zm224.41-49.59V86.921h-35.7v69.919c0 18.11-4.7 25.89-19.31 25.89-15 0-19.31-8.29-19.31-25.39V86.921h-35.3v71.939c-.02 33.86 19.79 51.13 54.63 51.13 33.97 0 54.99-16.43 54.99-51.63zm120.89 49.59v-26.91h-46.55V86.921h-35.52v120.99l82.07.04zm84.72-92.92l13.45 46.53h-27.06l13.61-46.53zm-60.01 92.93h32.95l6.55-22.51h40.86l6.55 22.51h37.41L719.72 86.98l-45.69-.001-39.5 120.98zm187.89 0v-50.61l35.52 50.61h40.85l-47.51-64.84 45.16-56.199h-36.93l-37.06 47.909V86.921h-35.5v120.99l35.47.05zm220.98-60.59v-1.36c0-37.58-27.7-60.776-65.3-60.776-17.09-1.016-33.83 5.058-46.2 16.756-12.37 11.71-19.24 27.98-18.96 44.9v1.35c.02 36.35 24.84 61.75 64.67 61.75 39.79.01 65.79-25.39 65.79-62.62zm-93.61.67v-1.36c0-22.01 10.86-34.36 28.24-34.36s28.47 12.69 28.47 34.2v1.35c.1 21.66-10.79 34.86-28.21 34.86-17.12.01-28.5-12.68-28.5-34.69zm152.01 59.92h40.1l40.4-120.98-33.1-.001L1124 171.9l-25-84.921h-38l40.8 120.98z" class="Logo__text" /></svg>
